www/assets/icons/king_bed.svg

<svg xmlns="http://www.w3.org/2000/svg" width="24" height="24" viewBox="0 0 24 24" fill='currentColor'><path d="M20 10V7c0-1.1-.9-2-2-2H6c-1.1 0-2 .9-2 2v3c-1.1 0-2 .9-2 2v5h1.33L4 19h1l.67-2h12.67l.66 2h1l.67-2H22v-5c0-1.1-.9-2-2-2m-9 0H6V7h5zm7 0h-5V7h5z"/></svg>

<svg width="24" height="24" viewBox="0 0 24 24" xmlns="http://www.w3.org/2000/svg" fill='currentColor'><path d="M20 10V7C20 5.9 19.1 5 18 5H6C4.9 5 4 5.9 4 7V10C2.9 10 2 10.9 2 12V17H3.33L4 19H5L5.67 17H18.34L19 19H20L20.67 17H22V12C22 10.9 21.1 10 20 10ZM11 10H6V7H11V10ZM18 10H13V7H18V10Z"/></svg>
